web/workspace/public/assets/icons/football.svg

<svg xmlns="http://www.w3.org/2000/svg" width="30" height="30" viewBox="0 0 30 30"><path d="M27.5 2.5C26.25 1.25 20.359 1 19 1 9 1 1 9 1 19c0 1.359.313 7.313 1.5 8.5S9.641 29 11 29c10 0 18-8 18-18 0-1.359-.25-7.25-1.5-8.5zM11 27c-2.1 0-6.044-.42-7.069-.931C3.42 25.044 3 21.1 3 19c0-8.822 7.178-16 16-16 2.498 0 6.152.422 7.074.926.504.922.926 4.576.926 7.074 0 8.822-7.178 16-16 16zm8.6-18L18 10.6 16.4 9 15 10.4l1.6 1.6-1.6 1.6-1.6-1.6-1.4 1.4 1.6 1.6-1.6 1.6-1.6-1.6L9 16.4l1.6 1.6L9 19.6l1.4 1.4 1.6-1.6 1.6 1.6 1.4-1.4-1.6-1.6 1.6-1.6 1.6 1.6 1.4-1.4-1.6-1.6 1.6-1.6 1.6 1.6 1.4-1.4-1.6-1.6 1.6-1.6L19.6 9z"/></svg>

<?xml version="1.0" encoding="iso-8859-1"?>
<!-- Generator: Adobe Illustrator 14.0.0, SVG Export Plug-In . SVG Version: 6.00 Build 43363)  -->
<!DOCTYPE svg PUBLIC "-//W3C//DTD SVG 1.1//EN" "http://www.w3.org/Graphics/SVG/1.1/DTD/svg11.dtd">
<svg version="1.1" id="Layer_1" xmlns="http://www.w3.org/2000/svg" xmlns:xlink="http://www.w3.org/1999/xlink" x="0px" y="0px"
	 width="30px" height="30px" viewBox="0 0 30 30" style="enable-background:new 0 0 30 30;" xml:space="preserve">
<path d="M27.5,2.5C26.25,1.25,20.359,1,19,1C9,1,1,9,1,19c0,1.359,0.313,7.313,1.5,8.5S9.641,29,11,29c10,0,18-8,18-18
	C29,9.641,28.75,3.75,27.5,2.5z M11,27c-2.1,0-6.044-0.42-7.069-0.931C3.42,25.044,3,21.1,3,19c0-8.822,7.178-16,16-16
	c2.498,0,6.152,0.422,7.074,0.926C26.578,4.848,27,8.502,27,11C27,19.822,19.822,27,11,27z M19.6,9L18,10.6L16.4,9L15,10.4l1.6,1.6
	L15,13.6L13.4,12L12,13.4l1.6,1.6L12,16.6L10.4,15L9,16.4l1.6,1.6L9,19.6l1.4,1.4l1.6-1.6l1.6,1.6l1.4-1.4L13.4,18l1.6-1.6l1.6,1.6
	l1.4-1.4L16.4,15l1.6-1.6l1.6,1.6l1.4-1.4L19.4,12l1.6-1.6L19.6,9z"/>
</svg>
